X: 1
T:Corkonian -- Reel
M:2/4
L:1/16
R:reel
B:Ryan's Mammoth Collection
N:146
N:Similar to The Merry Blacksmith
Z:Contributed by Ray Davies,  ray:davies99.freeserve.co.uk
K:D
u((3ABc)|\
d2(dA) BAFG | Adcd BAFG | Acde fd"4"ed | Bee2 Bee2 |
d2(dc) BAFG | Adcd BAFG | Acde fd"4"ec | dBAF D2  ::
u(fg)|\
"tr"Ta4 "tr"Tf4 | .d2(dA) BAFG | Acde fd"4"ed | Bee2 Bee2 |
.a2(ag) .f2(fe) | .d2(dA) BAFG | Acde fd"4"ec | dBAF D2  :|
